X:1
T:Passant Par Boisfort
C:Frederic Paris
A:France
Z:abc transcription Simon Wascher
M:2/4
L:1/8
K:G
BA2B | G2 E2 | D3/2E/2 FD | GF AG |\
BA2B | G2 Ec | B3/2A/2 GF | G4 :|
|:\
B3/2A/2 cB | F3/2G/2 AB | c3d | c/2d/2c/2B/2 AG |\
B3/2A/2 cB | F3/2G/2 AB | cA2F | G4 :|
